X: 1216
T: All That He's Done For Me
B: australian traditional tunes wiki
M:6/8
L:1/8
R: Jig
Q: 3/8=100
K:D
V:1 
g||"D"afd Adf|e2dF2A|"G"cBA B2e|B3B2f|"A"gecB2A|gec BcB|"D"ABAd2e|f3f2g||
"D"afd Adf|e2dF2A|"G"cBAB2e|B3-B2f|"A"gecB2A|gec BcB|"D"ABAf2e|d3d2A||
"D"dfd "A"cec|"G"BdB"A"A3|"D"FGF ABA|"G"G3-G2d|"A7"cecB2A|BcBA3|"D"ABAd2e|f3f2g||
"D"afd Adf|e2dF2A|"G"cBAB2e|B3B2f|"A"gecB2A|gec BcB|"D"ABAf2e|d3-d2||
% abcbook-tune_id 6342d53a54e8f9b061a88b81


% abcbook-boost 0
% abcbook-tablature 
% abcbook-transpose 
% abcbook-lastupdated 1665324354620
% abcbook-soundfonts 
% abcbook-repeats 1
% NFF Book 2014

